Origami/64x64/apps/revolt.svg

<svg width="64" height="64" version="1.1" viewBox="0 0 64 64" xmlns="http://www.w3.org/2000/svg">
 <circle cx="32" cy="33" r="28" style="opacity:.2"/>
 <circle cx="32" cy="32" r="28" style="fill:#4f4f4f"/>
 <path d="M 32 4 A 28 28 0 0 0 4 32 A 28 28 0 0 0 4.0175781 32.492188 A 28 28 0 0 1 32 5 A 28 28 0 0 1 59.974609 32.492188 A 28 28 0 0 0 60 32 A 28 28 0 0 0 32 4 z" style="fill:#ffffff;opacity:.1"/>
 <path d="m 32,9 a 4,4 0 0 0 -4,4 4,4 0 0 0 4,4 4,4 0 0 0 4,-4 4,4 0 0 0 -4,-4 z M 21.90625,11.679688 A 4,4 0 0 0 20,12.214844 4,4 0 0 0 18.535156,17.679688 4,4 0 0 0 24,19.144532 a 4,4 0 0 0 1.464844,-5.464844 4,4 0 0 0 -3.558594,-2 z m 19.90625,0.0039 a 4,4 0 0 0 -3.277344,1.9961 A 4,4 0 0 0 40,19.144532 4,4 0 0 0 45.464844,17.679688 4,4 0 0 0 44,12.214844 4,4 0 0 0 41.8125,11.683594 Z M 49.226562,19 A 4,4 0 0 0 47.320312,19.535156 4,4 0 0 0 45.855468,25 4,4 0 0 0 51.320312,26.464844 4,4 0 0 0 52.785156,21 4,4 0 0 0 49.226562,19 Z M 14.492188,19.004 A 4,4 0 0 0 11.214844,21 4,4 0 0 0 12.679688,26.464844 4,4 0 0 0 18.144531,25 a 4,4 0 0 0 -1.464843,-5.464844 4,4 0 0 0 -2.1875,-0.53125 z M 12,29 a 4,4 0 0 0 -4,4 4,4 0 0 0 4,4 4,4 0 0 0 4,-4 4,4 0 0 0 -4,-4 z m 40,0 a 4,4 0 0 0 -4,4 4,4 0 0 0 4,4 4,4 0 0 0 4,-4 4,4 0 0 0 -4,-4 z M 14.585938,39 A 4,4 0 0 0 12.679688,39.535156 4,4 0 0 0 11.214844,45 4,4 0 0 0 16.679688,46.464844 4,4 0 0 0 18.144531,41 4,4 0 0 0 14.585938,39 Z m 34.546874,0.004 A 4,4 0 0 0 45.855468,41 4,4 0 0 0 47.320312,46.464844 4,4 0 0 0 52.785156,45 a 4,4 0 0 0 -1.464844,-5.464844 4,4 0 0 0 -2.1875,-0.53125 z M 41.90625,46.320406 A 4,4 0 0 0 40,46.855468 4,4 0 0 0 38.535156,52.320312 4,4 0 0 0 44,53.785156 a 4,4 0 0 0 1.464844,-5.464844 4,4 0 0 0 -3.558594,-2 z m -20.09375,0.004 A 4,4 0 0 0 18.535156,48.320312 4,4 0 0 0 20,53.785156 4,4 0 0 0 25.464844,52.320312 4,4 0 0 0 24,46.855468 4,4 0 0 0 21.8125,46.324218 Z M 32,49 a 4,4 0 0 0 -4,4 4,4 0 0 0 4,4 4,4 0 0 0 4,-4 4,4 0 0 0 -4,-4 z" style="opacity:.2"/>
 <path d="m 32,8 a 4,4 0 0 0 -4,4 4,4 0 0 0 4,4 4,4 0 0 0 4,-4 4,4 0 0 0 -4,-4 z M 21.90625,10.679688 A 4,4 0 0 0 20,11.214844 4,4 0 0 0 18.535156,16.679688 4,4 0 0 0 24,18.144531 a 4,4 0 0 0 1.464844,-5.464843 4,4 0 0 0 -3.558594,-2 z m 19.90625,0.0039 a 4,4 0 0 0 -3.277344,1.9961 A 4,4 0 0 0 40,18.144531 4,4 0 0 0 45.464844,16.679688 4,4 0 0 0 44,11.214844 4,4 0 0 0 41.8125,10.683594 Z M 49.226562,18 A 4,4 0 0 0 47.320312,18.535156 4,4 0 0 0 45.855468,24 4,4 0 0 0 51.320312,25.464844 4,4 0 0 0 52.785156,20 4,4 0 0 0 49.226562,18 Z m -34.734374,0.0039 A 4,4 0 0 0 11.214844,20 4,4 0 0 0 12.679688,25.464844 4,4 0 0 0 18.144531,24 a 4,4 0 0 0 -1.464843,-5.464844 4,4 0 0 0 -2.1875,-0.53125 z M 12,28 a 4,4 0 0 0 -4,4 4,4 0 0 0 4,4 4,4 0 0 0 4,-4 4,4 0 0 0 -4,-4 z m 40,0 a 4,4 0 0 0 -4,4 4,4 0 0 0 4,4 4,4 0 0 0 4,-4 4,4 0 0 0 -4,-4 z M 14.585938,38 A 4,4 0 0 0 12.679688,38.535156 4,4 0 0 0 11.214844,44 4,4 0 0 0 16.679688,45.464844 4,4 0 0 0 18.144531,40 4,4 0 0 0 14.585938,38 Z m 34.546874,0.004 A 4,4 0 0 0 45.855468,40 4,4 0 0 0 47.320312,45.464844 4,4 0 0 0 52.785156,44 a 4,4 0 0 0 -1.464844,-5.464844 4,4 0 0 0 -2.1875,-0.53125 z M 41.90625,45.320406 A 4,4 0 0 0 40,45.855468 4,4 0 0 0 38.535156,51.320312 4,4 0 0 0 44,52.785156 a 4,4 0 0 0 1.464844,-5.464844 4,4 0 0 0 -3.558594,-2 z m -20.09375,0.004 A 4,4 0 0 0 18.535156,47.320312 4,4 0 0 0 20,52.785156 4,4 0 0 0 25.464844,51.320312 4,4 0 0 0 24,45.855468 4,4 0 0 0 21.8125,45.324218 Z M 32,48 a 4,4 0 0 0 -4,4 4,4 0 0 0 4,4 4,4 0 0 0 4,-4 4,4 0 0 0 -4,-4 z" style="fill:#ffffff"/>
 <circle cx="32" cy="32" r="10" style="opacity:.3"/>
 <path d="m26 16a11 11 0 0 1 -11 11 11 11 0 0 1 -10.999999 -11 11 11 0 0 1 10.999999 -11 11 11 0 0 1 11 11z" style="opacity:.2"/>
 <path d="m26 15a11 11 0 0 1 -11 11 11 11 0 0 1 -10.999999 -11 11 11 0 0 1 10.999999 -11 11 11 0 0 1 11 11z" style="fill:#ffae4a"/>
 <path d="m43.104574 37.000952c-0.692842-0.02228-0.78496 0.343612-0.989466 1.312674-1.029172 6.379972 4.971516 9.919784 12.855846 12.677676 2.304314 0.19848 2.780966-3.048408 3.52124-4.811546 0.95924-2.284648 2.49609-4.333808 0.623034-5.275324l-15.092892-3.758394c-0.39187-0.0855-0.686812-0.13768-0.917762-0.14508z" style="opacity:.2"/>
 <path d="m43.104574 36.000952c-0.692842-0.02228-0.78496 0.343612-0.989466 1.312674-1.029172 6.379972 4.971516 9.919784 12.855846 12.677676 2.304314 0.19848 2.780966-3.048408 3.52124-4.811546 0.95924-2.284648 2.49609-4.333808 0.623034-5.275324l-15.092892-3.758394c-0.39187-0.0855-0.686812-0.13768-0.917762-0.14508z" style="fill:#8e8e8e"/>
 <path d="M 15 4 A 11 11 0 0 0 4 15 A 11 11 0 0 0 4.0214844 15.402344 A 11 11 0 0 1 15 5 A 11 11 0 0 1 25.974609 15.501953 A 11 11 0 0 0 26 15 A 11 11 0 0 0 15 4 z" style="fill:#ffffff;opacity:.2"/>
 <path d="m43.105469 36c-0.692842-0.02228-0.785729 0.345391-0.990235 1.314453-0.10534 0.653022-0.118469 1.267562-0.082031 1.863281 0.017992-0.284154 0.034252-0.56709 0.082031-0.863281 0.204506-0.969062 0.297393-1.336733 0.990235-1.314453 0.23095 0.0074 0.524145 0.060984 0.916015 0.146484l15.09375 3.757813c0.444551 0.223459 0.692941 0.51107 0.806641 0.847656 0.165867-0.781152 0.027144-1.428544-0.806641-1.847656l-15.09375-3.757813c-0.39187-0.0855-0.685065-0.139084-0.916015-0.146484z" style="fill:#ffffff;opacity:.2"/>
</svg>

<svg xmlns="http://www.w3.org/2000/svg" width="64" height="64" version="1.1" viewBox="0 0 64 64">
 <circle cx="32" cy="33" r="28" style="opacity:0.2"/>
 <circle style="fill:#4f4f4f" cx="32" cy="32" r="28"/>
 <path style="opacity:0.1;fill:#ffffff" d="M 32 4 A 28 28 0 0 0 4 32 A 28 28 0 0 0 4.0175781 32.492188 A 28 28 0 0 1 32 5 A 28 28 0 0 1 59.974609 32.492188 A 28 28 0 0 0 60 32 A 28 28 0 0 0 32 4 z"/>
 <path d="m 32,9 a 4,4 0 0 0 -4,4 4,4 0 0 0 4,4 4,4 0 0 0 4,-4 4,4 0 0 0 -4,-4 z M 21.90625,11.679688 A 4,4 0 0 0 20,12.214844 4,4 0 0 0 18.535156,17.679688 4,4 0 0 0 24,19.144532 a 4,4 0 0 0 1.464844,-5.464844 4,4 0 0 0 -3.558594,-2 z m 19.90625,0.0039 a 4,4 0 0 0 -3.277344,1.9961 A 4,4 0 0 0 40,19.144532 4,4 0 0 0 45.464844,17.679688 4,4 0 0 0 44,12.214844 4,4 0 0 0 41.8125,11.683594 Z M 49.226562,19 A 4,4 0 0 0 47.320312,19.535156 4,4 0 0 0 45.855468,25 4,4 0 0 0 51.320312,26.464844 4,4 0 0 0 52.785156,21 4,4 0 0 0 49.226562,19 Z M 14.492188,19.004 A 4,4 0 0 0 11.214844,21 4,4 0 0 0 12.679688,26.464844 4,4 0 0 0 18.144531,25 a 4,4 0 0 0 -1.464843,-5.464844 4,4 0 0 0 -2.1875,-0.53125 z M 12,29 a 4,4 0 0 0 -4,4 4,4 0 0 0 4,4 4,4 0 0 0 4,-4 4,4 0 0 0 -4,-4 z m 40,0 a 4,4 0 0 0 -4,4 4,4 0 0 0 4,4 4,4 0 0 0 4,-4 4,4 0 0 0 -4,-4 z M 14.585938,39 A 4,4 0 0 0 12.679688,39.535156 4,4 0 0 0 11.214844,45 4,4 0 0 0 16.679688,46.464844 4,4 0 0 0 18.144531,41 4,4 0 0 0 14.585938,39 Z m 34.546874,0.004 A 4,4 0 0 0 45.855468,41 4,4 0 0 0 47.320312,46.464844 4,4 0 0 0 52.785156,45 a 4,4 0 0 0 -1.464844,-5.464844 4,4 0 0 0 -2.1875,-0.53125 z M 41.90625,46.320406 A 4,4 0 0 0 40,46.855468 4,4 0 0 0 38.535156,52.320312 4,4 0 0 0 44,53.785156 a 4,4 0 0 0 1.464844,-5.464844 4,4 0 0 0 -3.558594,-2 z m -20.09375,0.004 A 4,4 0 0 0 18.535156,48.320312 4,4 0 0 0 20,53.785156 4,4 0 0 0 25.464844,52.320312 4,4 0 0 0 24,46.855468 4,4 0 0 0 21.8125,46.324218 Z M 32,49 a 4,4 0 0 0 -4,4 4,4 0 0 0 4,4 4,4 0 0 0 4,-4 4,4 0 0 0 -4,-4 z" style="opacity:0.2"/>
 <path style="fill:#ffffff" d="m 32,8 a 4,4 0 0 0 -4,4 4,4 0 0 0 4,4 4,4 0 0 0 4,-4 4,4 0 0 0 -4,-4 z M 21.90625,10.679688 A 4,4 0 0 0 20,11.214844 4,4 0 0 0 18.535156,16.679688 4,4 0 0 0 24,18.144531 a 4,4 0 0 0 1.464844,-5.464843 4,4 0 0 0 -3.558594,-2 z m 19.90625,0.0039 a 4,4 0 0 0 -3.277344,1.9961 A 4,4 0 0 0 40,18.144531 4,4 0 0 0 45.464844,16.679688 4,4 0 0 0 44,11.214844 4,4 0 0 0 41.8125,10.683594 Z M 49.226562,18 A 4,4 0 0 0 47.320312,18.535156 4,4 0 0 0 45.855468,24 4,4 0 0 0 51.320312,25.464844 4,4 0 0 0 52.785156,20 4,4 0 0 0 49.226562,18 Z m -34.734374,0.0039 A 4,4 0 0 0 11.214844,20 4,4 0 0 0 12.679688,25.464844 4,4 0 0 0 18.144531,24 a 4,4 0 0 0 -1.464843,-5.464844 4,4 0 0 0 -2.1875,-0.53125 z M 12,28 a 4,4 0 0 0 -4,4 4,4 0 0 0 4,4 4,4 0 0 0 4,-4 4,4 0 0 0 -4,-4 z m 40,0 a 4,4 0 0 0 -4,4 4,4 0 0 0 4,4 4,4 0 0 0 4,-4 4,4 0 0 0 -4,-4 z M 14.585938,38 A 4,4 0 0 0 12.679688,38.535156 4,4 0 0 0 11.214844,44 4,4 0 0 0 16.679688,45.464844 4,4 0 0 0 18.144531,40 4,4 0 0 0 14.585938,38 Z m 34.546874,0.004 A 4,4 0 0 0 45.855468,40 4,4 0 0 0 47.320312,45.464844 4,4 0 0 0 52.785156,44 a 4,4 0 0 0 -1.464844,-5.464844 4,4 0 0 0 -2.1875,-0.53125 z M 41.90625,45.320406 A 4,4 0 0 0 40,45.855468 4,4 0 0 0 38.535156,51.320312 4,4 0 0 0 44,52.785156 a 4,4 0 0 0 1.464844,-5.464844 4,4 0 0 0 -3.558594,-2 z m -20.09375,0.004 A 4,4 0 0 0 18.535156,47.320312 4,4 0 0 0 20,52.785156 4,4 0 0 0 25.464844,51.320312 4,4 0 0 0 24,45.855468 4,4 0 0 0 21.8125,45.324218 Z M 32,48 a 4,4 0 0 0 -4,4 4,4 0 0 0 4,4 4,4 0 0 0 4,-4 4,4 0 0 0 -4,-4 z"/>
 <circle style="opacity:0.3" cx="32" cy="32" r="10"/>
 <path d="M 26,16 A 11,11 0 0 1 15,27 11,11 0 0 1 4.0000008,16 11,11 0 0 1 15,4.9999998 11,11 0 0 1 26,16 Z" style="opacity:0.2"/>
 <path style="fill:#ffae4a" d="M 26,15 A 11,11 0 0 1 15,26 11,11 0 0 1 4.0000008,15 11,11 0 0 1 15,3.9999998 11,11 0 0 1 26,15 Z"/>
 <path d="m 43.104574,37.000952 c -0.692842,-0.02228 -0.78496,0.343612 -0.989466,1.312674 -1.029172,6.379972 4.971516,9.919784 12.855846,12.677676 2.304314,0.19848 2.780966,-3.048408 3.52124,-4.811546 0.95924,-2.284648 2.49609,-4.333808 0.623034,-5.275324 L 44.022336,37.146038 c -0.39187,-0.0855 -0.686812,-0.13768 -0.917762,-0.14508 z" style="opacity:0.2"/>
 <path style="fill:#8e8e8e" d="m 43.104574,36.000952 c -0.692842,-0.02228 -0.78496,0.343612 -0.989466,1.312674 -1.029172,6.379972 4.971516,9.919784 12.855846,12.677676 2.304314,0.19848 2.780966,-3.048408 3.52124,-4.811546 0.95924,-2.284648 2.49609,-4.333808 0.623034,-5.275324 L 44.022336,36.146038 c -0.39187,-0.0855 -0.686812,-0.13768 -0.917762,-0.14508 z"/>
 <path style="opacity:0.2;fill:#ffffff" d="M 15 4 A 11 11 0 0 0 4 15 A 11 11 0 0 0 4.0214844 15.402344 A 11 11 0 0 1 15 5 A 11 11 0 0 1 25.974609 15.501953 A 11 11 0 0 0 26 15 A 11 11 0 0 0 15 4 z"/>
 <path style="fill:#ffffff;opacity:0.2" d="M 43.105469 36 C 42.412627 35.97772 42.31974 36.345391 42.115234 37.314453 C 42.009894 37.967475 41.996765 38.582015 42.033203 39.177734 C 42.051195 38.89358 42.067455 38.610644 42.115234 38.314453 C 42.31974 37.345391 42.412627 36.97772 43.105469 37 C 43.336419 37.0074 43.629614 37.060984 44.021484 37.146484 L 59.115234 40.904297 C 59.559785 41.127756 59.808175 41.415367 59.921875 41.751953 C 60.087742 40.970801 59.949019 40.323409 59.115234 39.904297 L 44.021484 36.146484 C 43.629614 36.060984 43.336419 36.0074 43.105469 36 z"/>
</svg>
